X:1
T:Won’t Somebody Tell Them?
T:Anna G. Lambert
T:Won’t Somebody Tell Them?
T:Public Domain
T:Public Domain
C:Anna G. Lambert
Z:Public Domain
%%score ( 1 2 ) ( 3 4 )
L:1/8
M:3/4
K:F
V:1 treble 
V:2 treble 
V:3 bass 
V:4 bass 
V:1
 [FA]2 [FA]2 [FA]2 | [FA]3 [F^G] [FA]2 | [FB]2 F2 [FG]2 | [FA]6 | [Ec]2 [EG]2 [EB]2 | %5
w: 1.~O- ver the|mount- ains so|bleak and so|Far|from the beau-|
w: 2.~Lost ones are|grop- ing in|sin’s aw- ful|Fall-|ing and dy-|
w: 3.~Speed with the|mes- sage, oh,|speed in His|Hast-|en the sto-|
 [FA]3 [CG] [CF]2 | [DG]2 D2 [DF]2 | ([CE]2 [=B,D]2 [_B,C]2) | C2 [CF]2 [CG]2 | [FA]3 [F^G] [FA]2 | %10
w: ti- ful ci-|ty of gold;|ones * *|are stray- ing|cause you and|
w: ing a- way|from the right;|y * *|the mes- sage|Christ nev- er|
w: ry of Christ|to pro- claim!|en * *|to bring back|fall- en and|
 [FB]2 F2 [FG]2 | [FA]6 | [FB]3 [Fc] [Fd]2 | [Fc]2 F2 [FB]2 | [FA]3 F [EG]2 | F4 || %16
w: I Nev- er|told|them a Sav-|ior is nigh.|||
w: heard, Lost ones|whom|no one ev-|er has cared.|won’t some- bo-|tell|
w: lost, Speed with|mes-|sage, what- ev-|er the cost!|||
"^Refrain" [Fc]2 | [Fc]3 [Fc] [F=B][Fc] | [Fd]2 [Fc]4 | [FA]3 [CG] [CF]2 | [CF]2 [CE]2 [CF]2 | %21
w: |||||
w: Tell|them of Cal- va-|ry’s tree;|Tell them the|sto- ry of|
w: |||||
 [EG]6 | [FA]3 [FA] [FA]2 | [FA]2 [EB]2 [_Ec]2 | [DB]2 [Fd]4 | [Fc]2 [F=B]2 [Fc]2 | %26
w: |||||
w: Je-|sus, What a|great Sav- ior|is He!||
w: |||||
 [Fd]2 [CE]2 [EG]2 | F6 |] %28
w: ||
w: ||
w: ||
V:2
 x6 | x6 | x2 F2 x2 | x6 | x6 | x6 | x2 D2 x2 | x6 | C2 x4 | x6 | x2 F2 x2 | x6 | x6 | x2 F2 x2 | %14
w: ||cold,||||Lost||be-||have||||
w: ||night,||||Man-||of||for|||O,|
w: ||name,||||Hast-||the||the||||
 x3 F x2 | F4 || x2 | x6 | x6 | x6 | x6 | x6 | x6 | x6 | x6 | x6 | x6 | F6 |] %28
w: ||||||||||||||
w: dy|them,|||||||||||||
w: ||||||||||||||
V:3
 [F,C]2 [F,C]2 [F,C]2 | [F,C]3 [F,=B,] [F,C]2 | [F,D]2 [F,D]2 [F,_D]2 | [F,C]6 | %4
 [C,G,]2 [C,C]2 [C,C]2 | [F,C]3 [F,B,] [F,A,]2 | [G,=B,]2 [G,B,]2 [G,B,]2 | C,2 D,2 E,2 | %8
 [F,A,]2 [F,A,]2 [F,B,]2 | [F,C]3 [F,=B,] [F,C]2 | [F,D]2 [F,D]2 [F,_D]2 | [F,C]6 | %12
 [D,B,]3 [C,A,] [B,,B,]2 | [F,A,]2 [D,A,]2 [B,,D]2 | [C,C]3 [C,A,] [C,B,]2 | [F,A,]4 || [F,A,]2 | %17
 [F,A,]3 [F,A,] [F,^G,][F,A,] | [F,B,]2 [F,A,]4 | [F,C]3 [F,B,] [F,A,]2 | [F,A,]2 [G,B,]2 [F,A,]2 | %21
 [C,C]6 | [F,C]3 [F,C] [F,C]2 | [F,C]2 [G,C]2 [A,C]2 | B,2 [B,,B,]4 | [F,A,]2 [F,^G,]2 [F,A,]2 | %26
 [F,B,]2 [C,C]2 [C,B,]2 | [F,A,]6 |] %28
V:4
 x6 | x6 | x6 | x6 | x6 | x6 | x6 | G,6 | x6 | x6 | x6 | x6 | x6 | x6 | x6 | x4 || x2 | x6 | x6 | %19
 x6 | x6 | x6 | x6 | x6 | B,2 x4 | x6 | x6 | x6 |] %28

